packages/icons/raw/imported/NotificationsBellCross.svg

<svg width="32" height="32" viewBox="0 0 32 32" fill="none" xmlns="http://www.w3.org/2000/svg">
<path d="M18.7821 22.6852H19.2821C19.2821 22.409 19.0582 22.1852 18.7821 22.1852V22.6852ZM13.1524 22.6852V22.1852C12.8763 22.1852 12.6524 22.409 12.6524 22.6852H13.1524ZM8.36027 21.2187L7.86299 21.1666H7.86299L8.36027 21.2187ZM18.2592 9.02725H17.7592V9.35612L18.0612 9.48636L18.2592 9.02725ZM21.5553 13.0786L21.0773 13.2253V13.2253L21.5553 13.0786ZM14.037 9.02724L14.235 9.48636L14.537 9.35611V9.02724H14.037ZM21.8865 16.2027L22.385 16.1636V16.1636L21.8865 16.2027ZM21.7145 14.0116L21.216 14.0507V14.0507L21.7145 14.0116ZM8.54226 20.7066L8.10619 20.4619H8.10619L8.54226 20.7066ZM9.37921 19.2146L9.81529 19.4592L9.37921 19.2146ZM13.063 8.98154C12.8307 9.13084 12.7634 9.44019 12.9127 9.67249C13.062 9.90479 13.3713 9.97207 13.6036 9.82277L13.063 8.98154ZM10.3621 16.0989L10.8596 16.1488L10.3621 16.0989ZM10.9754 14.9943C11.0029 14.7196 10.8025 14.4745 10.5278 14.4469C10.253 14.4194 10.0079 14.6198 9.98037 14.8946L10.9754 14.9943ZM18.6111 23.1852C18.8872 23.1852 19.1111 22.9613 19.1111 22.6852C19.1111 22.409 18.8872 22.1852 18.6111 22.1852V23.1852ZM22.4327 19.7243C22.5562 19.9713 22.8566 20.0713 23.1036 19.9478C23.3505 19.8243 23.4506 19.5239 23.327 19.2769L22.4327 19.7243ZM22.7073 19.1556L22.2601 19.3793V19.3793L22.7073 19.1556ZM7.35355 6.85015C7.15829 6.65489 6.84171 6.65489 6.64645 6.85015C6.45118 7.04541 6.45118 7.362 6.64645 7.55726L7.35355 6.85015ZM24.9427 25.8536C25.138 26.0488 25.4546 26.0488 25.6499 25.8536C25.8451 25.6583 25.8451 25.3417 25.6499 25.1464L24.9427 25.8536ZM18.2821 22.6852C18.2821 23.9636 17.2457 25 15.9672 25V26C17.798 26 19.2821 24.5159 19.2821 22.6852H18.2821ZM15.9672 25C14.6888 25 13.6524 23.9636 13.6524 22.6852H12.6524C12.6524 24.5159 14.1365 26 15.9672 26V25ZM13.1524 23.1852H18.7821V22.1852H13.1524V23.1852ZM7.86299 21.1666C7.81257 21.6485 7.90455 22.1441 8.18121 22.534C8.46904 22.9396 8.92668 23.1852 9.49188 23.1852V22.1852C9.23978 22.1852 9.09078 22.0878 8.99672 21.9552C8.89148 21.807 8.82631 21.5693 8.85756 21.2707L7.86299 21.1666ZM14.537 8.61111C14.537 7.72132 15.2583 7 16.1481 7V6C14.706 6 13.537 7.16903 13.537 8.61111H14.537ZM16.1481 7C17.0379 7 17.7592 7.72132 17.7592 8.61111H18.7592C18.7592 7.16903 17.5902 6 16.1481 6V7ZM18.0612 9.48636C19.9691 10.3093 20.7931 12.2992 21.0773 13.2253L22.0333 12.932C21.7325 11.9518 20.7944 9.57615 18.4572 8.56813L18.0612 9.48636ZM18.7592 9.02725V8.61111H17.7592V9.02725H18.7592ZM14.537 9.02724V8.61111H13.537V9.02724H14.537ZM22.385 16.1636L22.2129 13.9724L21.216 14.0507L21.3881 16.2419L22.385 16.1636ZM8.97834 20.9512L9.81529 19.4592L8.94314 18.9699L8.10619 20.4619L8.97834 20.9512ZM13.6036 9.82277C13.7994 9.69696 14.0095 9.58364 14.235 9.48636L13.839 8.56812C13.5612 8.68792 13.3029 8.82732 13.063 8.98154L13.6036 9.82277ZM10.8596 16.1488L10.9754 14.9943L9.98037 14.8946L9.86458 16.0491L10.8596 16.1488ZM9.49188 23.1852H18.6111V22.1852H9.49188V23.1852ZM23.327 19.2769L23.1544 18.9319L22.2601 19.3793L22.4327 19.7243L23.327 19.2769ZM9.81529 19.4592C10.3874 18.4393 10.7429 17.3124 10.8596 16.1488L9.86458 16.0491C9.76162 17.0757 9.44793 18.0701 8.94314 18.9699L9.81529 19.4592ZM21.3881 16.2419C21.4738 17.3341 21.7699 18.3995 22.2601 19.3793L23.1544 18.9319C22.7219 18.0674 22.4607 17.1273 22.385 16.1636L21.3881 16.2419ZM21.0773 13.2253C21.1546 13.4775 21.1924 13.7496 21.216 14.0507L22.2129 13.9724C22.1869 13.6414 22.1419 13.2859 22.0333 12.932L21.0773 13.2253ZM8.85756 21.2707C8.86639 21.1863 8.90334 21.0849 8.97834 20.9512L8.10619 20.4619C8.00216 20.6474 7.89224 20.8871 7.86299 21.1666L8.85756 21.2707ZM6.64645 7.55726L24.9427 25.8536L25.6499 25.1464L7.35355 6.85015L6.64645 7.55726Z" fill="black"/>
</svg>

<svg width="32" height="32" fill="none" xmlns="http://www.w3.org/2000/svg"><path d="M18.782 22.685h.5a.5.5 0 0 0-.5-.5v.5Zm-5.63 0v-.5a.5.5 0 0 0-.5.5h.5ZM8.36 21.22l-.497-.052.497.052Zm9.9-12.192h-.5v.33l.301.13.198-.46Zm3.295 4.052-.478.146.478-.146Zm-7.518-4.052.198.46.302-.13v-.33h-.5Zm7.85 7.176.498-.04-.498.04Zm-.172-2.191-.499.039.498-.04ZM8.542 20.707l-.436-.245.436.245Zm.837-1.492.436.244-.436-.244Zm3.684-10.233a.5.5 0 0 0 .54.84l-.54-.84Zm-2.7 7.117.497.05-.498-.05Zm.612-1.105a.5.5 0 0 0-.995-.1l.995.1Zm7.636 8.191a.5.5 0 0 0 0-1v1Zm3.822-3.46a.5.5 0 1 0 .894-.448l-.894.447Zm.274-.57-.447.224.447-.223ZM7.354 6.85a.5.5 0 1 0-.708.707l.708-.707Zm17.589 19.004a.5.5 0 0 0 .707-.708l-.707.708Zm-6.66-3.169A2.315 2.315 0 0 1 15.966 25v1a3.315 3.315 0 0 0 3.315-3.315h-1ZM15.966 25a2.315 2.315 0 0 1-2.315-2.315h-1A3.315 3.315 0 0 0 15.967 26v-1Zm-2.815-1.815h5.63v-1h-5.63v1Zm-5.289-2.018c-.05.481.042.977.318 1.367.288.406.746.651 1.31.651v-1c-.251 0-.4-.097-.494-.23-.106-.148-.17-.386-.14-.684l-.994-.104ZM14.537 8.61c0-.89.721-1.611 1.611-1.611V6a2.611 2.611 0 0 0-2.611 2.611h1ZM16.148 7c.89 0 1.611.721 1.611 1.611h1A2.611 2.611 0 0 0 16.15 6v1Zm1.913 2.486c1.908.823 2.732 2.813 3.016 3.74l.956-.294c-.3-.98-1.239-3.356-3.576-4.364l-.396.918Zm.698-.459v-.416h-1v.416h1Zm-4.222 0v-.416h-1v.416h1Zm7.848 7.137-.172-2.192-.997.079.172 2.19.997-.077ZM8.978 20.95l.837-1.492-.872-.49-.837 1.493.872.49Zm4.626-11.128c.195-.126.405-.24.631-.337l-.396-.918c-.278.12-.536.26-.776.414l.54.84Zm-2.744 6.326.115-1.155-.995-.1-.115 1.155.995.1Zm-1.368 7.036h9.12v-1h-9.12v1Zm13.835-3.908-.173-.345-.894.447.173.345.894-.447Zm-13.512.182a8.5 8.5 0 0 0 1.045-3.31l-.995-.1a7.5 7.5 0 0 1-.922 2.92l.872.49Zm11.573-3.217a8.498 8.498 0 0 0 .872 3.137l.894-.447a7.5 7.5 0 0 1-.769-2.768l-.997.078Zm-.31-3.017c.077.252.114.525.138.826l.997-.079a4.806 4.806 0 0 0-.18-1.04l-.956.293Zm-12.22 8.046a.863.863 0 0 1 .12-.32l-.872-.49a1.84 1.84 0 0 0-.243.706l.995.104ZM6.646 7.557l18.297 18.297.707-.708L7.354 6.85l-.708.707Z" fill="#000"/></svg>
